X:1
T:Sheep May Safely Graze
T:Sheep May Safely Graze
T:J.S.Bach
T:Edition Copyright © Christopher Moore 2004
T:Edition Copyright © Christopher Moore 2004
T:Edition Copyright © Christopher Moore 2004
T:Edition Copyright © Christopher Moore 2004
T:Edition Copyright © Christopher Moore 2004
T:Edition Copyright © Christopher Moore 2004
C:J.S.Bach
Z:Edition Copyright © Christopher Moore 2004
%%score [ 1 2 ] 3 4
L:1/8
Q:1/4=52
M:4/4
K:Bb
V:1 treble nm="Flute 1" snm="Fl. 1"
V:2 treble nm="Flute 2" snm="Fl. 2"
V:3 treble nm="Soprano" snm="S"
V:4 bass nm="Continuo" snm="Cont."
V:1
 ff/d/ ff/d/ fggb | ee/c/ ee/c/ eaac' | b-b/4c'/4d'/ b/d'/c'/f/ b-b/4c'/4d'/ b/d'/c'/f/ | %3
 bd'/4e'/4f'/ d'/b/c'/a/ bd'/4e'/4f'/ d'/b/c'/a/ | b2 z6 | z8 | z8 | z8 | ff/d/ ff/d/ fggb | %9
 gg/e/ gg/e/ gaac' | z b/4c'/4d'/ b/d'/c'/f/ b z z2 | z b/4c'/4d'/ b/d'/c'/f/ b z z2 | z8 | %13
 z4 ff/d/ ff/d/ | fggb ee/c/ ee/c/ | abbc' z d'/4e'/4f'/ d'/b/f/a/ | bf/d/ ff/d/ fggb | %17
 ee/c/ ee/c/ eaac' | b-b/4c'/4d'/ b/d'/c'/f/ b-b/4c'/4d'/ b/d'/c'/f/ | %19
 bd'/4e'/4f'/ d'/b/c'/a/ bd'/4e'/4f'/ d'/b/c'/a/ | b2 z6 | z8 | z8 | z8 | z8 | z4 gg/e/ gg/e/ | %26
 g_aac' ff/d/ ff/d/ | f=bbd' c'-c'/4d'/4e'/ c'/e'/d'/g/ | %28
 c'-c'/4d'/4e'/ c'/e'/d'/g/ c'e'/4f'/4g'/ e'/c'/d'/=b/ | c'e'/4f'/4g'/ e'/c'/d'/=b/ c'2 z2 | z8 | %31
 z4 aa/f/ aa/f/ | abbd' gg/=e/ gg/e/ | g^c'c'=e' aa/^f/ aa/f/ | abbd' gg/=e/ gg/e/ | %35
 gaac' cc/A/ cc/A/ | cddB dd/=B/ dd/B/ | d=eeg gg/e/ aa/f/ | bc'b=e' z4 | z8 |] %40
V:2
 dd/B/ dd/B/ deeg | cc/A/ cc/A/ cece | d-d/4e/4f/ d/f/e/c/ d-d/4e/4f/ d/f/e/c/ | %3
 db/4c'/4d'/ b/d/e/f/ db/4c'/4d'/ b/d/e/c/ | d2 z6 | z8 | z8 | z8 | dd/B/ dd/B/ deeg | %9
 ee/c/ ee/c/ effa | z d/4e/4f/ d/f/e/c/ d z z2 | z d/4e/4f/ d/f/e/c/ d z z2 | z8 | z4 dd/B/ dd/B/ | %14
 deeg cc/A/ cc/A/ | cdde z b/4c'/4d'/ b/d/e/c/ | dd/B/ dd/B/ deeg | cc/A/ cc/A/ cece | %18
 d-d/4e/4f/ d/f/e/c/ d-d/4e/4f/ d/f/e/c/ | db/4c'/4d'/ b/d/e/f/ db/4c'/4d'/ b/d/e/c/ | d2 z6 | z8 | %22
 z8 | z8 | z8 | z4 ee/c/ ee/c/ | eff_a dd/=B/ dd/B/ | dfdf e-e/4f/4g/ e/g/f/d/ | %28
 e-e/4f/4g/ e/g/f/d/ ec'/4d'/4e'/ c'/e/f/g/ | ec'/4d'/4e'/ c'/e/f/d/ e2 z2 | z8 | z4 ff/d/ ff/d/ | %32
 fggb BB/G/ BB/G/ | =egeg _ee/c/ ^ff/d/ | ^fggb c'c'/g/ =ee/c/ | =effa AA/F/ AA/F/ | %36
 ABBd =BB/G/ BB/G/ | =Bcc=e ee/c/ ff/d/ | =egeg z4 | z8 |] %40
V:3
 z8 | z8 | z8 | z8 | B2 dc c3 d | e2 gf Td2 cB | dBAG c3 d | A2 GF F4 | F2 _AG G3 =A | %9
w: ||||Scha- fe _ kön- nen|si- cher _ wei- den, _|wo _ ein _ ga- ter|Hir- te _ wacht,|Scha- fe _ kön- nen|
 B2 dc A2 GF | f2 gf fdcB | f2 gf fdcB | e3 f dcBc | A3 B B4 | z4 gedc | f3 g Td3 c/B/ | B2 z6 | %17
w: si- cher _ wei- den, _|Scha- fe _ kön- * nen _|si- cher _ wei- * den, _|wo ein gu- * ter _|Hir- te wacht,|wo _ ein _|gu- ter Hir- te wacht.|_|
 z8 | z8 | z8 | d2 g2 ^f3 g | e2 d2 TB2 AG | c2 d=B c3 d | e2 fd e2 gf | g2 _a2 =B2 cd | e2 dc c4 | %26
w: |||Wo Re- gen- ten|wohl re- gie- ren, _|kann man _ Ruh' und|Frie- den _ spü- ren, _|und was Län- der _|glück lich _ macht,|
 z8 | z8 | z8 | z4 G2 BA | B3 d c2 BA/B/ | A2 GF f2 =ed | d3 f =ef/g/ ed | ^c2 =BA =c4- | %34
w: |||wo Re- *|gen- ten wohl re- * *|gie- ren, _ kann man _|Ruh' und Frie- * * den _|spü- ren, _ Ruh'|
 c2 Bc/A/ B4- | BA A2 e4- | e2 df/=e/ f4- | f=ede e2 dc | B2 AB/G/ c/B/A/B/ c/B/c/d/ | A2 GF F4 |] %40
w: _ und _ _ Frie-|* * den, Ruh'|_ und _ _ Frie-|* * den _ spü- ren, _|und was _ _ Län- * * * * * der _|glück- lich _ macht.|
V:4
 B,,B,,B,,B,, B,,B,,B,,B,, | B,,B,,B,,B,, B,,B,,B,,B,, | B,B,A,A, G,G,F,F, | %3
 E,E,F,F, G,F,/E,/ F,F,, | B,,B,,B,B, B,B,B,B, | A,A,A,A, B,B,B,B, | B,,B,,B,,B,, B,,B,,A,,B,, | %7
 C,C,C,C, F,F,E,E, | D,D,B,,B,, E,E,D,D, | C,C,C,C, F,F,E,E, | D,D,E,E, B,,B,,C,C, | %11
 D,D,E,E, B,,B,,D,D, | C,C,F,F, B,,C,D,E, | F,F,F,,F,, B,,B,,B,,B,, | B,,B,,B,,B,, B,,B,,A,,A,, | %15
 B,,B,,E,E, F,F,F,,F,, | B,,B,,B,,B,, B,,B,,B,,B,, | B,,B,,B,,B,, B,,B,,B,,B,, | %18
 B,B,A,A, G,G,F,F, | E,E,F,F, G,F,/E,/ F,F,, | B,,B,,B,B, A,A,B,B, | CCDD G,G,F,F, | %22
 E,E,D,D, E,E,=B,,B,, | C,C,=B,,B,, C,C,D,D, | E,E,F,F, F,F,E,F, | G,G,G,,G,, C,C,C,C, | %26
 C,C,C,C, C,C,C,C, | C,C,C,C, CCB,B, | _A,A,G,G, F,F,G,G, | _A,G,/F,/ G,G,, C,C,C,C, | %30
 D,D,D,D, =E,E,E,E, | F,F,=E,E, D,D,C,C, | B,,B,,A,,A,, G,,G,,G,,G,, | A,,A,,G,,G,, ^F,,F,,D,,D,, | %34
 G,,G,,F,,F,, =E,,E,,C,,C,, | F,,F,,F,,F,, F,,F,,F,,F,, | B,,B,,B,,B,, G,,G,,G,,G,, | %37
 C,C,C,C, B,,B,,A,,A,, | G,,G,,G,,G,, A,,A,,B,,B,, | C,C,C,,C,, F,,4 |] %40

